**kern	**kern
*staff1	*staff1
=1-	=1-
*clefG2	*clefG2
*k[]	*k[]
*F:	*F:
*M4/4	*M4/4
{8f/L	1F:maj
8g/	.
8a/	.
8b-/J	.
8cc/L	.
8a/J	.
12b-\L	.
12cc\	.
12b-\J	.
=2	=2
8a/L	1D:dom
8g/	.
8f#/	.
8a/J	.
8cc\L	.
8ee-\	.
8cc\	.
8cc#\J	.
=3	=3
8dd\L	1G:min
8dd-\	.
8cc\	.
8b\J	.
8b-/L	.
8a/	.
8g/	.
8f/J	.
=4	=4
8e/L	1C:dom
8g/	.
8b-/	.
8dd-/J	.
8cc/L	.
8b-/	.
8a/	.
8g/J	.
=5	=5
8f/L	1F:maj
8e/	.
8d/	.
8d-/J	.
8c/L	.
8B-/	.
8A/	.
8G/J	.
=6	=6
8F#/L	1D:dom
8A/	.
8c/	.
8e-/J	.
8c/L	.
8c#/	.
8d/	.
8A/J	.
=7	=7
8c/L	1G:min
8A/J	.
12B-/L	.
12d/	.
12f/J	.
8a/L	.
8g/	.
8e/	.
8c/J	.
=8	=8
8g/L	1C:dom
8a-/	.
8e/	.
8c/J	.
8d/L	.
8B-/	.
8G/	.
8A/J	.
=9	=9
8c/L	1C:min
8A/	.
8B-/	.
8d-/J	.
8g/L	.
8e-/	.
8c/	.
8Bn/J}	.
=10	=10
1r	1F:dom
=11	=11
8r	1B-:maj
{8g/L	.
8e-/	.
8B/J	.
8B-/L	.
8G/	.
8A/	.
8f#/J	.
=12	=12
8e-/L	2B-:maj
8en/	.
8f/	.
8A/J	.
8B-/L	2E-:dom
8e-/	.
8c/	.
8c#/J	.
=13	=13
8d/L	1F:maj
8d-/	.
8c/	.
8B/J	.
8B-/L	.
8A/	.
8G/	.
8F/J	.
=14	=14
8E/L	1C:dom
8G/	.
8B-/	.
8d-/J	.
8c/L	.
8B-/J	.
12A/L	.
12c/	.
12e/J	.
=15	=15
4g/	1F:maj
8r	.
[8cc\	.
8cc\]	.
4g/	.
[8a-/	.
=16	=16
8a-/]	1C:dom
4cc\	.
8ee\	.
16dd\LL	.
16ee\	.
16cc\	.
16dd\J	.
8b-\	.
16an\L	.
16b-\JJ	.
=17	=17
4a/}	1F:maj
4r	.
2r	.
=18||	=18||
8r	1D:dom
{8g#/	.
12a\L	.
12cc\	.
12ee\J	.
8gg\L	.
8ff\	.
8ee\	.
8b\J}	.
=19	=19
2r	1G:min
8r	.
{8f#/	.
16g\LL	.
16b-\	.
16dd\	.
[16ff\JJ	.
=20	=20
8ff\L]	1C:dom
8dd\	.
8ee-\	.
8een\J	.
8cc\L	.
8cc#\	.
8dd\	.
8ccn\J	.
=21	=21
8b-/L	1F:maj
8g/J	.
12a\L	.
12b-\	.
12bn\J	.
8cc/L	.
8a/J	.
12b-\L	.
12cc\	.
12b-\J	.
=22	=22
8a/L	1D:dom
8g/	.
8f#/	.
8A/J	.
8c/L	.
8e-/	.
8c/	.
8c#/J	.
=23	=23
8d/L	1G:min
8d-/	.
8c/	.
8B/J	.
8B-/L	.
8A/	.
8G/	.
8F/J	.
=24	=24
8E/L	1C:dom
8G/	.
8B-/	.
8d-/J	.
8c/L	.
8B-/	.
8dn/	.
8f/J	.
=25	=25
8g/L	1C:min
8g-/	.
8f/	.
8e/J	.
8e-/L	.
8G/	.
8G#/	.
8A/J	.
=26	=26
8d/L	1F:dom
8d-/J	.
4c/}	.
4r	.
8r	.
{8A/	.
=27	=27
8c/L	1B-:maj
8B-/	.
8A/	.
8B-/J	.
8d/L	.
8f/	.
8g/	.
8a/J	.
=28	=28
8cc/L	4B-:min
8a/J	.
12b-\L	2.E-:dom
12cc\	.
12b-\J	.
8a/L	.
8f/	.
8d/	.
8c/J	.
=29	=29
8g/L	2F:maj
8c/	.
8e/	.
8g/J	.
8g-/L	2A-:min
8e-/	.
8B/	.
8A-/J	.
=30	=30
8f/L	2G:min
8d/	.
8e-/	.
8en/J	.
8c/L	2C:dom
8c#/	.
8d/	.
8cn/J	.
=31	=31
8B-/L	1F:maj
8A-/J	.
12An/L	.
12c/	.
12e/J	.
24g/LL	.
24a-/	.
24g/JJ	.
8f/}	.
4r	.
=32	=32
2r	2B-:min
2r	2E-:dom
=33	=33
4r	1A-:maj
{8g/L	.
8a-/J	.
8cc\L	.
8ee-\J	.
12dd-\L	.
12ee-\	.
12dd-\J	.
=34||	=34||
8cc\L	4F:dom
8b-\	.
8a\	2.A:o7
8cc\J	.
8ee-\L	.
8gg-\	.
8ff\	.
8een\J	.
=35	=35
8ee-\L	1B-:min
8cc\J	.
12dd-\L	.
12ee-\	.
12dd-\J	.
8cc\L	.
8b\	.
8b-\	.
8a\J	.
=36	=36
8a-/L	1E-:dom
8g/	.
8g-/	.
8f/J	.
8e/L	.
8B-/	.
8d-/	.
8e/J	.
=37	=37
8e-/L	1A-:maj
8d-/J	.
12c/L	.
12e-/	.
12g/J	.
8b-/L	.
8g/	.
8e-/	.
8c/J	.
=38	=38
8g/L	4F:dom
8g-/	.
8e-/	2.A:o7
8d/J	.
8d-/L	.
8e-/	.
8c/	.
8A/J	.
=39	=39
8B-/L	1B-:min
8c/	.
8d-/	.
8e-/J	.
8f/L	.
8a-/	.
8cc/	.
8ee-/J	.
=40	=40
4b\}	1E-:dom:5+
4r	.
2r	.
=41	=41
8r	1A-:maj
{8B/	.
12c/L	.
12e-/	.
12g/J	.
8b-/L	.
8a-/J}	.
4r	.
=42	=42
8r	1C-:min
{16ee\LL	.
16ee-\JJ	.
12dd/L	.
12f#/	.
12a/J	.
8cc#\L	.
8b\J}	.
4r	.
=43	=43
8r	1B-:min
{[8ff\L	.
8ff\]	.
[8ee\J	.
8ee\L]	.
16ee-\L	.
16dd\JJ	.
4dd-\	.
=44	=44
8r	2E-:dom
8B-/	.
12d-/L	.
12f/	.
12a-/J	.
8cc\L	2E-:dom:5+
8b\J}	.
4r	.
=45	=45
4r	1A-:maj
{12g/L	.
12a-/	.
12an/J	.
8b-/L	.
8g/	.
8a-/	.
8f/J	.
=46	=46
8d-/L	1A-:maj
8B-/	.
8c/	.
8e-/J}	.
4r	.
{12dd\L	.
12dd#\	.
12ee\J	.
=47	=47
12cc\L	1G:min
12cc#\	.
12dd\J	.
12b-\L	.
12bn\	.
12ccn\J	.
4g/}	.
4r	.
=48	=48
8r	1C:dom
{16cc/LL	.
16b-/J	.
8a-/	.
8e-/J	.
8d/L	.
8d-/	.
8c/	.
8B-/J	.
=49	=49
8A/L	1F:maj
8c/	.
8d/	.
8e/J	.
8g/L	.
8f/	.
8e/	.
8d/J	.
=50||	=50||
8c/L	1D:dom
8B-/	.
8A/	.
8G/J	.
8F#/L	.
8G/	.
8A/	.
8F#/J	.
=51	=51
8G/L	1G:min
8A/	.
8B-/	.
8c/J	.
8d/L	.
8d-/	.
8c/	.
8Bn/J	.
=52	=52
8B-/L	1C:dom
8A/J	.
4G/}	.
4r	.
{8B-/L	.
8d-/J	.
=53	=53
8c/L	1F:maj
8B-/	.
8A/	.
8B-/J	.
8g/L	.
8f/	.
8e/	.
8A/J	.
=54	=54
8c/L	1D:dom
8e-/	.
8c/	.
8c#/J	.
8d/L	.
8c#/	.
8cn/	.
8B/J	.
=55	=55
8B-/L	1G:min
8A/	.
8G/	.
8G-/J	.
8A/L	.
[8G-/J	.
4G-/]}	.
=56	=56
2r	1C:dom
4r	.
{12cc\L	.
12dd\	.
12ee\J	.
=57	=57
4ff\	1C:min
4r	.
8ee-\L	.
8cc\J	.
4r	.
=58	=58
4r	1F:dom
8b-/L	.
8a/J	.
8g/L	.
8g-/	.
8f/	.
8e-/J	.
=59	=59
8d/L	1B-:maj
8F/	.
8G/	.
8A/J	.
8c/L	.
8B-/	.
8A/	.
8B-/J	.
=60	=60
8d-/L	4B-:min
8f/	.
8g/	2.E-:dom
8a/J	.
8cc/L	.
8a/J	.
12b-\L	.
12cc\	.
12b-\J	.
=61	=61
8a\L	2A:min
8cc\	.
8ee\	.
8gg\J	.
8ee-\L	2A-:min
8b\J}	.
4r	.
=62	=62
2r	1G:min
{8f#/L	.
8g/	.
8b-/	.
8dd/J	.
=63	=63
8ff\L	1C:dom
8dd\	.
8ee-\	.
8een\J	.
8cc\L	.
8cc#\	.
8dd\	.
8cc#\J	.
=64	=64
8cc\L	2F:maj
8b\	.
8b-\	.
8a\J	.
8g/L	2C:dom
8f/	.
8e/	.
8g/J	.
=65	=65
8b-\L	1C:dom
8dd-\	.
8cc\	.
8a\J	.
12b-\L	.
12cc\	.
12b-\J	.
8a/L	.
8a-/J	.
=66	=66
8g/L	1F:maj
8e/J}	.
4r	.
4r	.
8r	.
{8B/	.
=67	=67
8g/L	2A:min
8c/	.
8e/	.
8g/J	.
8g-/L	2A-:min
8e-/	.
8B/	.
8A-/J	.
=68	=68
8f/L	2G:min
8d/	.
8B-/	.
8G/J	.
8f/L	2G-:maj
8d-/	.
8B-/	.
8G-/J	.
=69	=69
2e/}	1F:maj
2r	.
=70||	=70||
1r	.
=71	=71
1r	.
=72	=72
1r	.
=73	=73
1r	.
=74	=74
1r	.
=75	=75
1r	.
=76	=76
1r	.
=77	=77
1r	.
=78	=78
1r	.
=79	=79
1r	.
=80	=80
1r	.
=81	=81
1r	.
=82	=82
1r	.
=83	=83
1r	.
=84	=84
1r	.
=85	=85
1r	.
=86	=86
1r	.
=87	=87
1r	.
=88	=88
1r	.
=89	=89
1r	.
=90	=90
1r	.
=91	=91
1r	.
=92	=92
1r	.
=93	=93
1r	.
=94	=94
1r	.
=95	=95
1r	.
=96	=96
1r	.
=97	=97
1r	.
=98	=98
1r	.
=99	=99
1r	.
=100	=100
1r	.
=101	=101
1r	.
=102	=102
1r	.
=103	=103
1r	.
=104	=104
1r	.
=105	=105
1r	.
=106	=106
1r	.
=107	=107
1r	.
=108	=108
1r	.
=109	=109
1r	.
=110	=110
1r	.
=111	=111
1r	.
=112	=112
1r	.
=113	=113
1r	.
=114	=114
1r	.
=115	=115
1r	.
=116	=116
1r	.
=117	=117
1r	.
=118	=118
1r	.
=119	=119
1r	.
=120	=120
1r	.
=121	=121
1r	.
=122	=122
1r	.
=123	=123
1r	.
=124	=124
1r	.
=125	=125
1r	.
=126	=126
1r	.
=127	=127
1r	.
=128	=128
1r	.
=129	=129
1r	.
=130	=130
1r	.
=131	=131
1r	.
=132	=132
1r	.
=133	=133
1r	.
=134	=134
1r	.
=135	=135
1r	.
=136	=136
1r	.
=137	=137
1r	.
=138||	=138||
1r	.
=139	=139
1r	.
=140	=140
1r	.
=141	=141
1r	.
=142	=142
1r	.
=143	=143
1r	.
=144	=144
1r	.
=145	=145
1r	.
=146	=146
1r	.
=147	=147
1r	.
=148	=148
1r	.
=149	=149
1r	.
=150	=150
1r	.
=151	=151
1r	.
=152	=152
1r	.
=153	=153
1r	.
=154	=154
1r	.
=155	=155
1r	.
=156	=156
1r	.
=157	=157
1r	.
=158	=158
1r	.
=159	=159
1r	.
=160	=160
1r	.
=161	=161
1r	.
=162	=162
1r	.
=163	=163
1r	.
=164	=164
1r	.
=165	=165
1r	.
=166	=166
1r	.
=167	=167
1r	.
=168	=168
2r	.
4r	.
8r	.
{8f/	.
=169	=169
8a-\L	1A-:maj
8b-\	.
8cc\	.
8dd-\J	.
8ee-\L	.
8cc\J	.
12dd-\L	.
12ee-\	.
12dd-\J	.
=170||	=170||
8cc/L	4F:dom
8b-/	.
8a/	2.A:o7
8c/J	.
8e-/L	.
8g-/	.
8f/	.
8e-/J	.
=171	=171
8d-/L	1B-:min
8A/	.
8c/	.
8F/J	.
8B-/L	.
8d-/	.
8c/	.
8B-/J	.
=172	=172
8A-/L	1E-:dom
8G-/	.
8Gn/	.
8B-/J	.
8d-/L	.
8g-/	.
8e/	.
8Bn/J	.
=173	=173
8d-/L	1A-:maj
8e/	.
8e-/	.
8d-/J	.
8c/L	.
[8a-/J	.
4a-/]}	.
=174	=174
1r	.
=175	=175
1r	.
=176	=176
1r	.
=177	=177
8r	1A-:maj
8B/	.
12c/L	.
12e-/	.
12g/J	.
8b-/L	.
8g/J	.
4a-/	.
=178	=178
8r	1C-:min
{16ee\LL	.
16ee-\JJ	.
12dd/L	.
12g-/	.
12a/J	.
8dd-\L	.
8b\J	.
4r	.
=179	=179
8ff\L	1B-:min
8ee\	.
8ee-\	.
8dd\J	.
8dd-/L	.
8e/	.
8f/	.
8a-/J	.
=180	=180
8cc/L	1E-:dom
8a-/J	.
12b\L	.
12cc\	.
12b\J	.
8g/L	.
8f/	.
8e-/	.
8d-/J	.
=181	=181
4c/}	1A-:maj
4r	.
2r	.
=182	=182
1r	.
=183	=183
1r	.
=184	=184
1r	.
=185	=185
{2cc\	1F:maj
4a/	.
8g/L	.
[8f/J	.
=186||	=186||
2.f/]	1D:min
8g/L	.
8a/J	.
=187	=187
2b-\	1G:min
4g/	.
8f/L	.
[8e/J	.
=188	=188
2e/_	1C:dom
6e/]	.
6f/	.
6g/	.
=189	=189
2a/	1F:maj
4f/	.
8e/L	.
[8d/J	.
=190	=190
2.d/]	1D:dom
8e/L	.
8f/J	.
=191	=191
2g/	1G:min
4e/	.
8d/L	.
[8c/J	.
=192	=192
8c/L]	1C:dom
8G/	.
8B-/	.
8d-/J	.
4c/}	.
4r	.
=193	=193
2r	1C:min
{8g/L	.
8g-/	.
8f/	.
8e/J	.
=194	=194
8e-/L	1C:min
8f/	.
8g/	.
8b-/J	.
8dd\L	.
8dd-\	.
8cc\	.
8a\J	.
=195	=195
8cc/L	1F:dom
8a/J	.
12b-\L	.
12cc\	.
12b-\J	.
8a/L	.
8f/	.
8d/	.
8c/J	.
=196	=196
8g/L	1B-:maj
8a-/	.
8e/	.
8c/J	.
8d/L	.
8B-/	.
8G/	.
8A/J	.
=197	=197
8c/L	2A:min
8g/	.
8e/	.
8c/J	.
8g-/L	2A-:min
8e-/	.
8B/	.
8gn/J	.
=198	=198
8f/L	2G-:dom
8d/	.
8e-/	.
8en/J	.
8c/L	2C:dom
8c#/	.
8d/	.
8cn/J	.
=199	=199
8B-/L	2A:min:7
8G/	.
8A/	.
8c/J	.
8e/L	2D:dom
8g/	.
8e/	.
8c/J	.
=200	=200
8cc/L	2G:min
8g/J}	.
4r	.
2r	2C:dom
=201	=201
{8c/L	1F:maj
8d/	.
8e/	.
8f/J	.
8e/L	.
8d/	.
8c/	.
8d/J	.
=202	=202
8e/L	2G:min:7
8f/	.
8e/	.
8d/J	.
8c/L	2C:dom
8B-/	.
8A/	.
8c/J	.
=203	=203
4g/}	1F:maj
4r	.
2r	.
==	==
*-	*-
